picto/electric-car-charging-station-right-framed.svg

<svg class="color-immutable" width="30" height="30" viewBox="0 0 30 30" fill="none" xmlns="http://www.w3.org/2000/svg"><path d="M30 0H0V30H30V0Z" fill="#2D327D"/><path d="M25.5 3C26.325 3 27 3.675 27 4.5V25.5C27 26.325 26.325 27 25.5 27H4.5C3.675 27 3 26.325 3 25.5V4.5C3 3.675 3.675 3 4.5 3H25.5ZM25.5 2.625H4.5C3.46613 2.625 2.625 3.46613 2.625 4.5V25.5C2.625 26.5339 3.46613 27.375 4.5 27.375H25.5C26.5339 27.375 27.375 26.5339 27.375 25.5V4.5C27.375 3.46613 26.5339 2.625 25.5 2.625Z" fill="white"/><path d="M8.57993 16.7358L6.3297 18.9861C6.11858 19.1971 6 19.4832 6 19.7816V22.4252C6 22.6319 6.16822 22.8001 6.37515 22.8001H6.75007V22.3688C6.75007 21.1268 7.758 20.1188 9.00008 20.1188C10.2421 20.1188 11.25 21.1268 11.25 22.3688V22.8001H18.7125V22.3688C18.7125 21.1268 19.7204 20.1188 20.9624 20.1188C22.2045 20.1188 23.2126 21.1268 23.2126 22.3688V22.8001H23.6249C23.832 22.8001 24 22.6319 24 22.4252V20.0872C24 19.8922 23.8505 19.7296 23.6561 19.7136L19.2689 19.3495L16.6548 16.7357C16.444 16.5247 16.1578 16.4062 15.8596 16.4062H9.37553C9.07703 16.4063 8.79105 16.5247 8.57993 16.7358ZM13.0847 17.4941V17.4939C13.0847 17.2867 13.2527 17.1187 13.4597 17.1187H15.8217C15.9212 17.1187 16.0168 17.1582 16.0871 17.2285L17.8805 19.0222C17.9228 19.0643 17.9465 19.1214 17.9465 19.1813C17.9465 19.3053 17.8455 19.4062 17.7213 19.4062H13.462C13.255 19.4062 13.0873 19.2388 13.0871 19.0318L13.0847 17.4941ZM7.51335 19.4062C7.38938 19.4062 7.28835 19.3054 7.28835 19.1814C7.28835 19.1215 7.31212 19.0643 7.3545 19.0223L9.14798 17.2286C9.21825 17.1583 9.31358 17.1188 9.41303 17.1188H11.9981C12.2051 17.1188 12.373 17.2868 12.373 17.494V19.0313C12.373 19.2383 12.2051 19.4063 11.9981 19.4063H7.51335V19.4062Z" fill="white"/><path fill-rule="evenodd" clip-rule="evenodd" d="M8.9835 23.3362C8.46592 23.3362 8.04607 22.9163 8.04607 22.3988C8.04607 21.8813 8.46592 21.4613 8.9835 21.4613C9.50107 21.4613 9.92092 21.8812 9.92092 22.3988C9.92092 22.9163 9.50107 23.3362 8.9835 23.3362ZM9.0045 20.6784C8.06265 20.6784 7.2981 21.443 7.2981 22.3847C7.2981 23.3268 8.06265 24.0911 9.0045 24.0911C9.94627 24.0911 10.7109 23.3268 10.7109 22.3847C10.7109 21.443 9.94635 20.6784 9.0045 20.6784Z" fill="white"/><path fill-rule="evenodd" clip-rule="evenodd" d="M20.961 23.3362C20.4434 23.3362 20.0234 22.9163 20.0234 22.3987C20.0234 21.8812 20.4434 21.4613 20.961 21.4613C21.4784 21.4613 21.8984 21.8812 21.8984 22.3987C21.8984 22.9163 21.4784 23.3362 20.961 23.3362ZM20.961 20.6924C20.019 20.6924 19.2546 21.457 19.2546 22.3988C19.2546 23.3409 20.019 24.1051 20.961 24.1051C21.9029 24.1051 22.6671 23.3409 22.6671 22.3988C22.6671 21.457 21.9029 20.6924 20.961 20.6924Z" fill="white"/><path d="M13.65 11.25H10.875C10.0479 11.25 9.375 10.5771 9.375 9.75C9.375 8.9229 10.0479 8.25 10.875 8.25H11.626C12.0395 8.25 12.376 7.91355 12.376 7.5C12.376 7.08645 12.0395 6.75 11.626 6.75H6V6H11.626C12.4531 6 13.126 6.6729 13.126 7.5C13.126 8.3271 12.4531 9 11.626 9H10.875C10.4615 9 10.125 9.33645 10.125 9.75C10.125 10.1636 10.4615 10.5 10.875 10.5H13.65V11.25Z" fill="white"/><path d="M15.75 12.375H15C14.3787 12.375 13.875 11.8713 13.875 11.25V10.5C13.875 9.8787 14.3787 9.375 15 9.375H15.75C15.9571 9.375 16.125 9.54293 16.125 9.75V12C16.125 12.2071 15.9571 12.375 15.75 12.375Z" fill="white"/><path d="M17.6249 9.9375H16.35V10.3125H17.6249C17.7285 10.3125 17.8124 10.2286 17.8124 10.125C17.8124 10.0214 17.7285 9.9375 17.6249 9.9375Z" fill="white"/><path d="M17.625 11.4375H16.35V11.8125H17.625C17.7286 11.8125 17.8125 11.7286 17.8125 11.625C17.8125 11.5214 17.7286 11.4375 17.625 11.4375Z" fill="white"/></svg>

<svg class="color-immutable" width="30" height="30" viewBox="0 0 30 30" fill="none" xmlns="http://www.w3.org/2000/svg"><g clip-path="url(#a)"><path d="M30 0H0v30h30V0Z" fill="#2D327D"/><path d="M25.5 3c.825 0 1.5.675 1.5 1.5v21c0 .825-.675 1.5-1.5 1.5h-21c-.825 0-1.5-.675-1.5-1.5v-21C3 3.675 3.675 3 4.5 3h21Zm0-.375h-21A1.877 1.877 0 0 0 2.625 4.5v21c0 1.034.841 1.875 1.875 1.875h21a1.877 1.877 0 0 0 1.875-1.875v-21A1.877 1.877 0 0 0 25.5 2.625Z" fill="#fff"/><path d="m8.58 16.736-2.25 2.25c-.211.211-.33.497-.33.796v2.643c0 .207.168.375.375.375h.375v-.431a2.25 2.25 0 0 1 4.5 0v.431h7.462v-.431a2.25 2.25 0 0 1 4.5 0v.431h.413a.375.375 0 0 0 .375-.375v-2.338a.375.375 0 0 0-.344-.373l-4.387-.364-2.614-2.614a1.124 1.124 0 0 0-.795-.33H9.376c-.299 0-.585.119-.796.33Zm4.505.758c0-.207.168-.375.375-.375h2.362c.1 0 .195.04.265.11l1.794 1.793a.224.224 0 0 1-.16.384h-4.259a.375.375 0 0 1-.375-.374l-.002-1.538Zm-5.572 1.912a.225.225 0 0 1-.159-.384l1.794-1.793c.07-.07.166-.11.265-.11h2.585c.207 0 .375.168.375.375v1.537a.375.375 0 0 1-.375.375H7.513Z" fill="#fff"/><path fill-rule="evenodd" clip-rule="evenodd" d="M8.983 23.336a.938.938 0 1 1 0-1.875.938.938 0 0 1 0 1.875Zm.021-2.658a1.707 1.707 0 1 0 .002 3.415 1.707 1.707 0 0 0-.002-3.415ZM20.961 23.336a.938.938 0 1 1 0-1.875.938.938 0 0 1 0 1.875Zm0-2.644a1.707 1.707 0 1 0 .001 3.415 1.707 1.707 0 0 0-.001-3.415Z" fill="#fff"/><path d="M13.65 11.25h-2.775c-.827 0-1.5-.673-1.5-1.5s.673-1.5 1.5-1.5h.751a.75.75 0 0 0 0-1.5H6V6h5.626c.827 0 1.5.673 1.5 1.5s-.673 1.5-1.5 1.5h-.751a.75.75 0 0 0 0 1.5h2.775v.75ZM15.75 12.375H15a1.125 1.125 0 0 1-1.125-1.125v-.75c0-.621.504-1.125 1.125-1.125h.75c.207 0 .375.168.375.375V12a.375.375 0 0 1-.375.375ZM17.625 9.938H16.35v.374h1.275a.187.187 0 1 0 0-.374ZM17.625 11.438H16.35v.374h1.275a.187.187 0 1 0 0-.374Z" fill="#fff"/></g><defs><clipPath id="a"><path fill="#fff" d="M0 0h30v30H0z"/></clipPath></defs></svg>
